images/logo-32.svg

<svg xmlns="http://www.w3.org/2000/svg" width="32.4" height="15.2" viewBox="0 0 32.4 15.2"><g fill="#e57c63" data-name="Layer 1"><path d="M16.5 7.7h-1.3V4.98h1.3z"/><path d="M31.3.3H10.5L12 3a.9.9 0 0 1 0 .9l-1.5 2.6h20.8a.9.9 0 0 0 .9-.9V1.2a.9.9 0 0 0-.9-.9z"/><path d="M11 3.6a.4.4 0 0 0 0-.4L9.4.3H1.1a.9.9 0 0 0-.9.9v4.5a.9.9 0 0 0 .9.9h8.3zm-9.1.3a.5.5 0 1 1 .5-.5.5.5 0 0 1-.5.5zm2.1 0a.5.5 0 1 1 .5-.5.5.5 0 0 1-.5.5zm2.1 0a.5.5 0 1 1 .5-.5.5.5 0 0 1-.5.5zm9.8 3.3a3.8 3.8 0 1 0 3.8 3.8 3.8 3.8 0 0 0-3.8-3.8zm2.4 4.2a.4.4 0 0 1-.4.4h-1.2v1.3a.4.4 0 0 1-.4.4h-.8a.4.4 0 0 1-.4-.4v-1.3h-1.3a.4.4 0 0 1-.4-.4v-.8a.4.4 0 0 1 .4-.4h1.3V9a.4.4 0 0 1 .4-.4h.8a.4.4 0 0 1 .4.4v1.3H18a.4.4 0 0 1 .4.4z"/></g></svg>

<svg xmlns="http://www.w3.org/2000/svg" width="32.4" height="15.2" viewBox="0 0 32.4 15.2"><title>lrlogo32</title><g id="Layer_1" data-name="Layer 1"><rect x="15.3" y="5" width="1.3" height="2.72" transform="translate(31.8 12.7) rotate(180)" fill="#e57c63"/><path d="M31.3.3H10.5L12,3a.9.9,0,0,1,0,.9L10.5,6.5H31.3a.9.9,0,0,0,.9-.9V1.2A.9.9,0,0,0,31.3.3Z" fill="#e57c63"/><path d="M11,3.6a.4.4,0,0,0,0-.4L9.4.3H1.1a.9.9,0,0,0-.9.9V5.7a.9.9,0,0,0,.9.9H9.4Zm-9.1.3a.5.5,0,1,1,.5-.5A.5.5,0,0,1,1.9,3.9ZM4,3.9a.5.5,0,1,1,.5-.5A.5.5,0,0,1,4,3.9Zm2.1,0a.5.5,0,1,1,.5-.5A.5.5,0,0,1,6.1,3.9Z" fill="#e57c63"/><path d="M15.9,7.2A3.8,3.8,0,1,0,19.7,11,3.8,3.8,0,0,0,15.9,7.2Zm2.4,4.2a.4.4,0,0,1-.4.4H16.7v1.3a.4.4,0,0,1-.4.4h-.8a.4.4,0,0,1-.4-.4V11.8H13.8a.4.4,0,0,1-.4-.4v-.8a.4.4,0,0,1,.4-.4h1.3V9a.4.4,0,0,1,.4-.4h.8a.4.4,0,0,1,.4.4v1.3H18a.4.4,0,0,1,.4.4Z" fill="#e57c63"/></g></svg>
